X:7282
T:The Road To Drum
O:england
R:Hornpipe
C:Ed Reavy
M:4/4
L:1/8
N:Ed took this road once when he was young.
N:The boys were on holiday to attend a session of music
N:in Drum. It was the first time Ed heard flutes
N:and fiddles playing tunes like Trim the Velvet,
N:Rakish Paddy. It was an early awakening to the
N:music for him that he never forgot.
K:D
D2 FA dAFd|c2 Ad cdeg|(3fgf ec dcAF|GECE A,ECE|
D2 FA dAFd|c2 Ad cAFG|(3AAA ce gece|1d2 dc dBAF:|
2d2 dc def^g||a2 ^gb afdf|(3aaa ^gb afdf|g2 fa gece|
Aece Aec^g|a2 ^gb afdf|(3aaa ^gb afdf|gece bece|
1d2 dc def^g:|2d2 dc dBAF||


